source/assets/sprites/svg/stack/logo-vk.svg

<svg
  width="28"
  height="18"
  viewBox="0 0 28 18"
  xmlns="http://www.w3.org/2000/svg"
>
  <path
    d="M0.0853271 2.48988C0.0853271 1.63485 0.60043 1.17381 1.63064 1.10674L5.60048 1.13189C5.86691 1.13189 6.04453 1.25763 6.13334 1.50911C6.54187 2.76651 6.99925 3.85206 7.50547 4.76577C8.01169 5.67948 8.67333 6.7315 9.49039 7.92183C9.56144 8.07272 9.6769 8.14816 9.83675 8.14816C9.96109 8.14816 10.0588 8.08949 10.1298 7.97213L10.2098 7.6955L10.2364 3.34491C10.2364 3.04313 10.1609 2.84195 10.0099 2.74136C9.85896 2.64077 9.5792 2.56532 9.17067 2.51503C8.85095 2.46473 8.6911 2.28031 8.6911 1.96177C8.6911 1.89471 8.69998 1.84442 8.71774 1.81089C9.09074 0.721143 10.1565 0.176271 11.9149 0.176271L13.4069 0.151123C14.0819 0.151123 14.6414 0.310393 15.0855 0.628934C15.5295 0.947474 15.7516 1.45043 15.7516 2.13781V7.84639C15.8759 7.93022 15.9913 7.97213 16.0979 7.97213C16.3643 7.97213 16.5953 7.82124 16.7906 7.51947C18.7445 4.93761 19.8013 3.21079 19.9612 2.33899C19.9612 2.32223 19.979 2.28031 20.0145 2.21325C20.1388 1.96177 20.3431 1.74383 20.6273 1.55941C20.9115 1.37499 21.1601 1.24925 21.3733 1.18219C21.4443 1.14866 21.5243 1.13189 21.6131 1.13189H25.7428L26.0092 1.15704C26.3644 1.15704 26.6398 1.31631 26.8351 1.63485C26.9062 1.73544 26.955 1.84442 26.9817 1.96177C27.0083 2.07913 27.0261 2.19649 27.035 2.31384C27.0439 2.4312 27.0483 2.49826 27.0483 2.51503V2.69106C26.924 3.37844 26.6087 4.11192 26.1025 4.89151C25.5962 5.67109 24.9524 6.51355 24.1708 7.41887C23.3893 8.3242 22.9008 8.91937 22.7054 9.20438C22.5456 9.40556 22.4657 9.58998 22.4657 9.75763C22.4657 9.89175 22.5367 10.0426 22.6788 10.2103L26.5687 14.8375C26.7819 15.1058 26.8884 15.3992 26.8884 15.7177C26.8884 16.1033 26.7286 16.4218 26.4089 16.6733C26.0891 16.9248 25.7072 17.0673 25.2632 17.1008L24.8103 17.126H20.7605C20.7427 17.126 20.7072 17.1302 20.6539 17.1385C20.6006 17.1469 20.5651 17.1511 20.5473 17.1511C20.1566 17.1511 19.7924 16.9919 19.455 16.6733C19.3306 16.5392 18.4958 15.55 16.9505 13.7059C16.8617 13.5885 16.7374 13.4795 16.5775 13.3789C16.5064 13.6472 16.4132 14.0328 16.2977 14.5357C16.1823 15.0387 16.0979 15.3992 16.0446 15.6171L15.9647 16.0446C15.7871 16.6314 15.4141 16.9835 14.8457 17.1008L14.4727 17.126H11.8616C10.3874 17.126 8.91756 16.4889 7.45218 15.2147C5.98681 13.9406 4.66797 12.2934 3.49566 10.2732C2.32336 8.25295 1.23099 5.90162 0.218543 3.21917C0.129733 3.00122 0.0853271 2.75813 0.0853271 2.48988ZM16.0979 9.00319C15.7249 9.00319 15.3874 8.90679 15.0855 8.71399C14.7835 8.52119 14.6325 8.25714 14.6325 7.92183V2.13781C14.6325 1.8025 14.5437 1.5636 14.3661 1.42109C14.1885 1.27859 13.8776 1.20734 13.4336 1.20734L11.9149 1.25763C11.1512 1.25763 10.5739 1.38337 10.1831 1.63485C10.9647 1.98692 11.3554 2.55694 11.3554 3.34491V7.77095C11.3199 8.19008 11.1423 8.53796 10.8226 8.81458C10.5028 9.09121 10.1476 9.22953 9.75682 9.22953C9.22396 9.22953 8.81543 8.98643 8.53124 8.50024C7.14579 6.52193 6.11558 4.64422 5.44062 2.8671L5.20083 2.21325L1.65728 2.18811C1.42637 2.18811 1.29759 2.20068 1.27095 2.22583C1.24431 2.25098 1.23099 2.32223 1.23099 2.43958C1.23099 2.59047 1.24875 2.74974 1.28427 2.9174L1.84378 4.32568C3.3358 7.96375 4.9566 10.8306 6.70617 12.9263C8.45575 15.0219 10.1742 16.0698 11.8616 16.0698H14.526C14.6325 16.0698 14.7125 16.0404 14.7658 15.9817C14.819 15.9231 14.8634 15.8099 14.899 15.6422L14.9523 15.3908L15.4585 13.1778C15.6006 12.876 15.7249 12.6748 15.8315 12.5742C16.0269 12.3898 16.2578 12.2976 16.5242 12.2976C16.9505 12.2976 17.3857 12.5407 17.8297 13.0269L20.0944 15.7428C20.2365 15.9608 20.3875 16.0698 20.5473 16.0698H24.9435C25.4763 16.0698 25.7428 15.944 25.7428 15.6925C25.7428 15.6087 25.7161 15.5249 25.6628 15.4411L21.7996 10.8893C21.4976 10.5372 21.3466 10.16 21.3466 9.75763C21.3466 9.35527 21.4887 8.96966 21.7729 8.60083C22.0038 8.26552 22.4523 7.70808 23.1184 6.92849C23.7845 6.1489 24.3662 5.41961 24.8635 4.74062C25.3609 4.06163 25.6895 3.4455 25.8493 2.89225L25.9293 2.56532C25.9115 2.53179 25.9026 2.47731 25.9026 2.40186C25.9026 2.32642 25.8938 2.26355 25.876 2.21325H21.693C21.4266 2.31384 21.2134 2.46473 21.0536 2.66592L20.8937 3.14373C20.4496 4.30053 19.2862 6.08603 17.4034 8.50024C17.0304 8.83554 16.5953 9.00319 16.0979 9.00319Z"
  />
</svg>

<svg xmlns="http://www.w3.org/2000/svg" viewBox="0 0 28 18">
  <path d="M.085 2.49c0-.855.515-1.316 1.546-1.383l3.97.025a.52.52 0 0 1 .532.377C6.542 2.767 7 3.852 7.505 4.766c.507.913 1.168 1.965 1.985 3.156.071.15.187.226.347.226.124 0 .222-.059.293-.176l.08-.277.026-4.35c0-.302-.075-.503-.226-.604-.151-.1-.43-.176-.84-.226-.32-.05-.479-.235-.479-.553 0-.067.009-.118.027-.151C9.09.72 10.156.176 11.915.176l1.492-.025c.675 0 1.234.16 1.678.478.444.318.667.821.667 1.509v5.708a.63.63 0 0 0 .346.126c.266 0 .497-.15.693-.453 1.953-2.581 3.01-4.308 3.17-5.18 0-.017.018-.059.054-.126.124-.251.328-.47.612-.654.285-.184.533-.31.746-.377a.555.555 0 0 1 .24-.05h4.13l.266.025c.355 0 .63.16.826.478.071.1.12.21.147.327.026.117.044.234.053.352.009.117.013.184.013.201v.176c-.124.687-.44 1.42-.945 2.2-.507.78-1.15 1.623-1.932 2.528s-1.27 1.5-1.466 1.785c-.16.202-.24.386-.24.554 0 .134.072.285.214.452l3.89 4.627c.213.269.32.562.32.88 0 .386-.16.705-.48.956-.32.252-.702.394-1.146.428l-.453.025h-4.05a.875.875 0 0 0-.106.012.862.862 0 0 1-.107.013c-.39 0-.755-.16-1.092-.478-.124-.134-.96-1.123-2.504-2.967a1.384 1.384 0 0 0-.373-.327c-.072.268-.165.654-.28 1.157-.116.503-.2.863-.253 1.081l-.08.428c-.178.586-.55.938-1.12 1.056l-.372.025h-2.611c-1.475 0-2.944-.637-4.41-1.911-1.465-1.274-2.784-2.922-3.956-4.942C2.323 8.253 1.23 5.902.219 3.22a1.916 1.916 0 0 1-.134-.73Zm16.013 6.513c-.373 0-.71-.096-1.012-.289-.303-.193-.454-.457-.454-.792V2.138c0-.335-.088-.574-.266-.717-.178-.142-.488-.214-.932-.214l-1.52.05c-.763 0-1.34.126-1.73.378.78.352 1.171.922 1.171 1.71V7.77a1.5 1.5 0 0 1-.532 1.044 1.59 1.59 0 0 1-1.066.415c-.533 0-.942-.244-1.226-.73-1.385-1.978-2.415-3.856-3.09-5.633l-.24-.654-3.544-.025c-.23 0-.36.013-.386.038-.027.025-.04.096-.04.214 0 .15.018.31.053.477l.56 1.409c1.492 3.638 3.113 6.505 4.862 8.6 1.75 2.096 3.468 3.144 5.156 3.144h2.664c.107 0 .187-.03.24-.088.053-.059.097-.172.133-.34l.053-.251.507-2.213c.142-.302.266-.503.373-.604a.976.976 0 0 1 .692-.276c.427 0 .862.243 1.306.729l2.264 2.716c.142.218.293.327.453.327h4.396c.533 0 .8-.126.8-.377a.465.465 0 0 0-.08-.252L21.8 10.89c-.302-.352-.453-.729-.453-1.131 0-.403.142-.788.426-1.157.23-.335.68-.893 1.345-1.673a37.63 37.63 0 0 0 1.745-2.187c.498-.68.826-1.295.986-1.849l.08-.327a.37.37 0 0 1-.026-.163.572.572 0 0 0-.027-.189h-4.183c-.266.1-.48.252-.64.453l-.16.478C20.45 4.3 19.287 6.086 17.404 8.5a1.891 1.891 0 0 1-1.305.503Z"/>
</svg>
